public/icons/social-media/Instagram.svg

<svg width="24" height="24" viewBox="0 0 24 24" fill="none" xmlns="http://www.w3.org/2000/svg">
<path d="M0 12C0 5.37258 5.37258 0 12 0C18.6274 0 24 5.37258 24 12C24 18.6274 18.6274 24 12 24C5.37258 24 0 18.6274 0 12Z" fill="#101010"/>
<mask id="mask0_388_4221" style="mask-type:alpha" maskUnits="userSpaceOnUse" x="0" y="0" width="24" height="24">
<path fill-rule="evenodd" clip-rule="evenodd" d="M0 12C0 5.37258 5.37258 0 12 0C18.6274 0 24 5.37258 24 12C24 18.6274 18.6274 24 12 24C5.37258 24 0 18.6274 0 12Z" fill="white"/>
</mask>
<g mask="url(#mask0_388_4221)">
<path fill-rule="evenodd" clip-rule="evenodd" d="M12.0002 5.59961C10.2621 5.59961 10.0439 5.60721 9.36125 5.63828C8.67991 5.66948 8.21484 5.77734 7.8079 5.93561C7.38696 6.09908 7.02989 6.31775 6.67415 6.67362C6.31815 7.02936 6.09948 7.38643 5.93548 7.80723C5.77681 8.2143 5.66881 8.67951 5.63814 9.36058C5.60761 10.0433 5.59961 10.2615 5.59961 11.9997C5.59961 13.7378 5.60734 13.9553 5.63828 14.638C5.66961 15.3193 5.77748 15.7844 5.93561 16.1913C6.09921 16.6123 6.31788 16.9693 6.67375 17.3251C7.02936 17.6811 7.38643 17.9003 7.8071 18.0637C8.2143 18.222 8.67951 18.3299 9.36072 18.3611C10.0434 18.3921 10.2614 18.3997 11.9994 18.3997C13.7377 18.3997 13.9552 18.3921 14.6378 18.3611C15.3192 18.3299 15.7848 18.222 16.192 18.0637C16.6128 17.9003 16.9693 17.6811 17.3249 17.3251C17.6809 16.9693 17.8996 16.6123 18.0636 16.1915C18.2209 15.7844 18.3289 15.3192 18.3609 14.6381C18.3916 13.9554 18.3996 13.7378 18.3996 11.9997C18.3996 10.2615 18.3916 10.0434 18.3609 9.36071C18.3289 8.67937 18.2209 8.2143 18.0636 7.80737C17.8996 7.38643 17.6809 7.02936 17.3249 6.67362C16.9689 6.31762 16.6129 6.09895 16.1916 5.93561C15.7836 5.77734 15.3182 5.66948 14.6369 5.63828C13.9542 5.60721 13.7369 5.59961 11.9982 5.59961H12.0002ZM11.7872 6.75349H11.7873L12.0006 6.75355C13.7094 6.75355 13.912 6.75969 14.5868 6.79035C15.2108 6.81889 15.5495 6.92315 15.7751 7.01076C16.0737 7.12676 16.2867 7.26543 16.5105 7.48943C16.7345 7.71343 16.8732 7.92677 16.9895 8.22544C17.0771 8.45077 17.1815 8.78944 17.2099 9.41345C17.2405 10.0881 17.2472 10.2908 17.2472 11.9988C17.2472 13.7068 17.2405 13.9095 17.2099 14.5842C17.1813 15.2082 17.0771 15.5468 16.9895 15.7722C16.8735 16.0709 16.7345 16.2835 16.5105 16.5074C16.2865 16.7314 16.0739 16.8701 15.7751 16.9861C15.5497 17.0741 15.2108 17.1781 14.5868 17.2066C13.9121 17.2373 13.7094 17.2439 12.0006 17.2439C10.2917 17.2439 10.0891 17.2373 9.41447 17.2066C8.79046 17.1778 8.45179 17.0735 8.22605 16.9859C7.92739 16.8699 7.71405 16.7313 7.49005 16.5073C7.26604 16.2833 7.12738 16.0705 7.01111 15.7716C6.92351 15.5463 6.81911 15.2076 6.79071 14.5836C6.76004 13.909 6.75391 13.7063 6.75391 11.9972C6.75391 10.2881 6.76004 10.0865 6.79071 9.41185C6.81924 8.78784 6.92351 8.44917 7.01111 8.22357C7.12711 7.9249 7.26604 7.71156 7.49005 7.48756C7.71405 7.26356 7.92739 7.12489 8.22605 7.00862C8.45166 6.92062 8.79046 6.81662 9.41447 6.78795C10.0049 6.76129 10.2337 6.75329 11.4265 6.75195V6.75355C11.5379 6.75338 11.6578 6.75343 11.7872 6.75349ZM14.6485 8.58337C14.6485 8.15924 14.9925 7.81563 15.4165 7.81563V7.81537C15.8405 7.81537 16.1845 8.15937 16.1845 8.58337C16.1845 9.00738 15.8405 9.35138 15.4165 9.35138C14.9925 9.35138 14.6485 9.00738 14.6485 8.58337ZM11.9995 8.71289C10.1844 8.71296 8.71289 10.1845 8.71289 11.9996C8.71289 13.8147 10.1845 15.2856 11.9996 15.2856C13.8147 15.2856 15.2858 13.8147 15.2858 11.9996C15.2858 10.1845 13.8145 8.71289 11.9995 8.71289ZM14.1339 11.9996C14.1339 10.8213 13.1787 9.86621 12.0005 9.86621C10.8223 9.86621 9.86719 10.8213 9.86719 11.9996C9.86719 13.1777 10.8223 14.1329 12.0005 14.1329C13.1787 14.1329 14.1339 13.1777 14.1339 11.9996Z" fill="white"/>
</g>
</svg>

<svg width="24" height="24" fill="none" xmlns="http://www.w3.org/2000/svg"><path d="M0 12C0 5.373 5.373 0 12 0s12 5.373 12 12-5.373 12-12 12S0 18.627 0 12Z" fill="#101010"/><mask id="a" style="mask-type:alpha" maskUnits="userSpaceOnUse" x="0" y="0" width="24" height="24"><path fill-rule="evenodd" clip-rule="evenodd" d="M0 12C0 5.373 5.373 0 12 0s12 5.373 12 12-5.373 12-12 12S0 18.627 0 12Z" fill="#fff"/></mask><g mask="url(#a)"><path fill-rule="evenodd" clip-rule="evenodd" d="M12 5.6c-1.738 0-1.956.007-2.639.038-.681.031-1.146.14-1.553.298-.421.163-.778.382-1.134.738a3.142 3.142 0 0 0-.739 1.133c-.158.407-.266.873-.297 1.554-.03.682-.038.9-.038 2.639 0 1.738.007 1.955.038 2.638.032.681.14 1.146.298 1.553.163.421.382.778.738 1.134.355.356.712.575 1.133.739.407.158.873.266 1.554.297.682.031.9.039 2.638.039 1.739 0 1.956-.008 2.639-.039.681-.031 1.147-.139 1.554-.297a3.13 3.13 0 0 0 1.133-.739c.356-.356.575-.713.739-1.133.157-.408.265-.873.297-1.554.03-.683.039-.9.039-2.638 0-1.739-.008-1.957-.04-2.64-.031-.68-.14-1.146-.296-1.553a3.141 3.141 0 0 0-.74-1.133 3.128 3.128 0 0 0-1.132-.738c-.408-.159-.874-.267-1.555-.298-.683-.03-.9-.038-2.639-.038H12Zm-.213 1.153h.214c1.708 0 1.911.007 2.586.037.624.029.963.133 1.188.22.299.117.512.255.736.48.224.223.362.437.479.735.087.226.192.564.22 1.188.03.675.037.878.037 2.586 0 1.708-.006 1.91-.037 2.585-.029.624-.133.963-.22 1.188a1.979 1.979 0 0 1-.48.735 1.979 1.979 0 0 1-.735.48c-.225.087-.564.191-1.188.22-.675.03-.878.037-2.586.037-1.71 0-1.912-.007-2.587-.037-.624-.03-.962-.134-1.188-.221a1.982 1.982 0 0 1-.736-.479 1.983 1.983 0 0 1-.479-.735c-.087-.226-.192-.564-.22-1.188-.031-.675-.037-.878-.037-2.587s.006-1.91.037-2.585c.028-.624.133-.963.22-1.188.116-.3.255-.512.479-.736.224-.224.437-.363.736-.48.226-.087.564-.191 1.188-.22.59-.027.82-.035 2.013-.036v.002h.36Zm2.861 1.83a.768.768 0 1 1 0 0ZM12 8.713a3.287 3.287 0 1 0 0 6.573 3.287 3.287 0 0 0 0-6.573ZM14.134 12a2.133 2.133 0 1 0-4.267 0 2.133 2.133 0 0 0 4.267 0Z" fill="#fff"/></g></svg>
